X: 40139
T: Tiger's Eye, The
R: hornpipe
M: 4/4
K: Dmajor
|:a3g fgaf|gfed fdcd|Ad d2 Ad d2|cdef gfed|
a3g fgaf|gfed fdcd|Ad d2 Ad d2|cdec c2 d2:|
|:e2 A2 e2 A2|efge decd|e2 A2 e2 A2|B2 AB GABd|e2 A2 e2 A2|
efge decd|1 eAfA gAfA|gfed BABd:|2 edcB Afge|cdec c2 d2||

